packages/ui-icons/svg/Solid/tag.svg

<svg viewBox="0 0 1920 1920" version="1.1" xmlns="http://www.w3.org/2000/svg">
    <path d="M1521.46133,53 C1417.99467,53 1321.99467,95.6666667 1254.79467,166.066667 C1217.46133,203.4 1188.66133,249.266667 1170.528,300.466667 C1155.59467,338.866667 1148.128,381.533333 1148.128,426.333333 C1148.128,445.64 1150.15467,464.733333 1153.46133,483.72 C1156.23467,501.64 1160.71467,519.026667 1165.83467,536.306667 L1165.83467,536.413333 C1167.648,542.386667 1168.50133,548.573333 1170.528,554.333333 C1173.728,562.866667 1177.99467,572.466667 1180.128,575.666667 C1181.19467,578.866667 1183.328,583.133333 1185.46133,586.333333 C1204.66133,630.066667 1232.39467,668.466667 1270.79467,701.533333 C1272.288,702.813333 1284.23467,711.666667 1302.15467,723.293333 C1296.39467,753.48 1284.55467,782.813333 1261.30133,806.173333 C1198.79467,868.573333 1097.46133,868.573333 1034.95467,806.173333 C972.554667,743.666667 972.554667,642.333333 1034.95467,579.826667 C1043.38133,571.506667 1053.728,567.133333 1063.328,561.053333 C1050.31467,518.813333 1041.46133,472.733333 1041.46133,426.333333 C1041.46133,370.333333 1050.95467,316.36 1070.15467,266.333333 L745.141333,266.333333 L-0.032,1011.4 L829.728,1841.16 L1574.79467,1095.98667 L1574.79467,426.333333 C1574.79467,338.12 1503.008,266.333333 1414.79467,266.333333 L1308.23467,266.333333 C1357.19467,200.733333 1435.91467,159.666667 1521.46133,159.666667 C1668.66133,159.666667 1788.128,279.133333 1788.128,426.333333 L1894.79467,426.333333 C1894.79467,220.466667 1727.328,53 1521.46133,53" stroke="none" stroke-width="1" fill-rule="evenodd"/>
</svg>

<svg viewBox="0 0 1920 1920" xmlns="http://www.w3.org/2000/svg">
    <path d="M1521.461 53c-103.466 0-199.466 42.667-266.666 113.067-37.334 37.333-66.134 83.2-84.267 134.4-14.933 38.4-22.4 81.066-22.4 125.866 0 19.307 2.027 38.4 5.333 57.387 2.774 17.92 7.254 35.307 12.374 52.587v.106c1.813 5.974 2.666 12.16 4.693 17.92 3.2 8.534 7.467 18.134 9.6 21.334 1.067 3.2 3.2 7.466 5.333 10.666 19.2 43.734 46.934 82.134 85.334 115.2 1.493 1.28 13.44 10.134 31.36 21.76-5.76 30.187-17.6 59.52-40.854 82.88-62.506 62.4-163.84 62.4-226.346 0-62.4-62.506-62.4-163.84 0-226.346 8.426-8.32 18.773-12.694 28.373-18.774-13.013-42.24-21.867-88.32-21.867-134.72 0-56 9.494-109.973 28.694-160H745.14L-.032 1011.4l829.76 829.76 745.067-745.173V426.333c0-88.213-71.787-160-160-160h-106.56c48.96-65.6 127.68-106.666 213.226-106.666 147.2 0 266.667 119.466 266.667 266.666h106.667C1894.795 220.467 1727.328 53 1521.46 53" fill-rule="evenodd"/>
</svg>
